usr/share/icons/biglinux-icons-material/scalable/apps/gnome-mines.svg

<?xml version="1.0" encoding="UTF-8" standalone="no"?>
<svg
   width="24"
   height="24"
   viewBox="0 0 6.349875 6.349875"
   version="1.1"
   id="svg31877"
   sodipodi:docname="sgt-mines.svg"
   xml:space="preserve"
   inkscape:version="1.2.2 (b0a8486541, 2022-12-01)"
   xmlns:inkscape="http://www.inkscape.org/namespaces/inkscape"
   xmlns:sodipodi="http://sodipodi.sourceforge.net/DTD/sodipodi-0.dtd"
   xmlns="http://www.w3.org/2000/svg"
   xmlns:svg="http://www.w3.org/2000/svg"><defs
     id="defs31881"><radialGradient
       id="paint0_radial_3_321"
       cx="0"
       cy="0"
       r="1"
       gradientUnits="userSpaceOnUse"
       gradientTransform="matrix(0,5.8207186,-5.8207186,0,3.1749362,0.26458167)"><stop
         stop-color="#555555"
         id="stop180"
         offset="0"
         style="stop-color:#535353;stop-opacity:1;" /><stop
         offset="1"
         stop-color="#222222"
         id="stop182"
         style="stop-color:#3a3a3a;stop-opacity:1;" /></radialGradient></defs><sodipodi:namedview
     id="namedview31879"
     pagecolor="#ffffff"
     bordercolor="#000000"
     borderopacity="0.25"
     inkscape:showpageshadow="2"
     inkscape:pageopacity="0.0"
     inkscape:pagecheckerboard="0"
     inkscape:deskcolor="#d1d1d1"
     showgrid="false"
     inkscape:zoom="4.6845824"
     inkscape:cx="-37.570051"
     inkscape:cy="57.956073"
     inkscape:window-width="2560"
     inkscape:window-height="1000"
     inkscape:window-x="1680"
     inkscape:window-y="0"
     inkscape:window-maximized="1"
     inkscape:current-layer="svg31877" /><path
     fill-rule="evenodd"
     clip-rule="evenodd"
     d="m 2.5389012,0.29463507 c 0.03171,3.361e-4 0.06201,-0.0037 0.09092,-0.012118 0.379884,-0.024885 0.759713,-0.023875 1.139541,0.00303 0.344401,0.026833 0.677796,0.1015557 1.000158,0.2241664 0.53593,0.2206423 0.902661,0.60334403 1.100143,1.14809983 0.112948,0.3279789 0.179622,0.665242 0.200047,1.0117837 0.02823,0.4351517 0.01812,0.8693508 -0.03032,1.3025975 -0.03625,0.3045028 -0.115065,0.5973378 -0.2364,0.8784788 -0.22505,0.487485 -0.589745,0.823737 -1.094084,1.008757 -0.408693,0.138083 -0.828949,0.210789 -1.260794,0.218091 -0.485739,0.02527 -0.966601,-0.01108 -1.44262,-0.109032 -0.876171,-0.195179 -1.41665202,-0.729363 -1.62143802,-1.602497 -0.08691,-0.393057 -0.126304,-0.7909031 -0.1182,-1.1935381 -0.0097,-0.4281403 0.03576,-0.8502244 0.136385,-1.2662418 0.214678,-0.8163902 0.73293102,-1.32228203 1.55476102,-1.51767033 0.191499,-0.046817 0.385467,-0.078119 0.581901,-0.093907 z"
     fill="url(#paint0_radial_3_321)"
     id="path174"
     style="fill:url(#paint0_radial_3_321);stroke-width:0.264578" /><path
     d="m 3.1670378,1.1906231 c -0.141067,0 -0.2310499,0.1035741 -0.2399545,0.2404231 V 1.7098995 C 2.9397373,1.835032 3.0465919,1.9348568 3.175005,1.9348568 A 0.25307696,0.25307696 0 0 0 3.2677999,1.9189223 0.25354562,0.25354562 0 0 0 3.422458,1.7098995 V 1.4385448 A 0.25213963,0.25213963 0 0 0 3.1670378,1.1906231 Z M 2.6866602,1.7717628 a 1.5503307,1.5503307 0 0 0 -0.4499146,0.2558889 0.45928781,0.45928781 0 0 1 0.139661,0.1546581 c 0.00141,0.00187 -9.373e-4,0.00609 0,0.00797 a 0.44475932,0.44475932 0 0 1 0.038899,0.093264 c 9.374e-4,0.00234 0,0.00516 0,0.0075 a 0.47475362,0.47475362 0 0 1 0.00797,0.2015242 c -0.00609,0.029994 -0.019684,0.058114 -0.030932,0.085296 A 0.44475932,0.44475932 0 0 1 1.9813252,2.8567131 0.4100784,0.4100784 0 0 1 1.7488693,2.7868826 c -0.00984,0.02812 -0.024839,0.055302 -0.030932,0.085296 v 0.00797 c -0.00937,0.045929 -0.018746,0.091858 -0.023433,0.1391923 v 0.00797 c -0.00469,0.047803 -0.0075,0.098419 -0.0075,0.1471595 v 0.015466 c 0,0.046397 0.00328,0.09467 0.0075,0.139661 v 0.015466 c 0.00516,0.044523 0.01406,0.088108 0.023433,0.1316938 0.00844,0.043117 0.018746,0.082953 0.030932,0.1241952 a 0.61863256,0.61863256 0 0 1 0.2633875,-0.077798 c 0.089983,-0.00469 0.1734046,0.021558 0.2404231,0.070299 a 0.41195305,0.41195305 0 0 1 0.1471596,0.1930883 0.48365818,0.48365818 0 0 1 0.030932,0.1780912 c 0,0.1260698 -0.1031054,0.2915072 -0.1780912,0.3725855 0.030463,0.023433 0.059989,0.047803 0.092795,0.069362 0.039368,0.026245 0.074986,0.055302 0.116228,0.077798 0.059051,0.031869 0.1227891,0.060926 0.1860584,0.085297 0.012185,0.00469 0.025776,0.00562 0.038899,0.0075 a 0.26245018,0.26245018 0 0 1 -0.00797,-0.054366 c 0,-0.1968376 0.2221453,-0.3561824 0.496312,-0.3561824 0.2736981,0 0.4958434,0.1593448 0.4958434,0.3561824 0,0.017809 -0.00469,0.037493 -0.00797,0.054365 0.074986,-0.025776 0.1485655,-0.056239 0.21699,-0.092795 0.052959,-0.02812 0.098419,-0.05952 0.1476282,-0.093263 0.014997,-0.010311 0.031869,-0.019684 0.046398,-0.030932 0.011716,-0.00844 0.019684,-0.021558 0.030932,-0.030932 a 0.47944023,0.47944023 0 0 1 -0.085296,-0.085296 0.40679777,0.40679777 0 0 1 -0.085296,-0.1860584 0.53193027,0.53193027 0 0 1 -0.0075,-0.092795 c 0,-0.060457 0.013591,-0.1195086 0.030932,-0.1705926 4.687e-4,-0.00234 -9.373e-4,-0.00562 0,-0.00797 a 0.38430204,0.38430204 0 0 1 0.030932,-0.069362 c 0.01406,-0.023433 0.029057,-0.04218 0.046866,-0.062332 0.018278,-0.021558 0.039368,-0.037024 0.061863,-0.053896 A 0.37961543,0.37961543 0 0 1 4.23652,3.530645 0.45506986,0.45506986 0 0 1 4.321816,3.515648 c 0.06983,-0.00422 0.1874644,0.023902 0.2788533,0.077329 0.011248,-0.038899 0.023433,-0.075923 0.0314,-0.1162279 0.0089,-0.043586 0.017809,-0.087171 0.023433,-0.1316938 0,-0.00516 -9.373e-4,-0.01031 0,-0.015466 a 1.5606412,1.5606412 0 0 0 0,-0.3102536 c -0.00516,-0.046866 -0.01406,-0.093263 -0.023433,-0.1391923 -9.374e-4,-0.00234 0,-0.00562 0,-0.00797 -0.00703,-0.032806 -0.020153,-0.062332 -0.0314,-0.092795 A 0.40960974,0.40960974 0 0 1 4.368216,2.8492145 0.44194735,0.44194735 0 0 1 4.0504638,2.7175208 0.47100433,0.47100433 0 0 1 3.9965678,2.6472216 0.443822,0.443822 0 0 1 3.9731348,2.1823098 0.443822,0.443822 0 0 1 4.0274998,2.0974822 0.47334764,0.47334764 0 0 1 4.1048288,2.027183 1.4809689,1.4809689 0 0 0 3.6633501,1.7717627 c 0.00328,0.01734 0.0075,0.036556 0.0075,0.054365 0,0.1968376 -0.2221453,0.3561824 -0.4958434,0.3561824 -0.1715299,0 -0.3215014,-0.059989 -0.4110157,-0.1546582 A 0.35618238,0.35618238 0 0 1 2.717594,1.9657883 0.2741667,0.2741667 0 0 1 2.679164,1.8261274 c 0,-0.017809 0.00422,-0.037493 0.0075,-0.054365 z M 1.6092085,1.9423554 a 0.25823223,0.25823223 0 0 0 -0.1546581,0.1162279 0.25307696,0.25307696 0 0 0 0.077329,0.3486838 l 0.2015242,0.1241952 0.077329,0.046397 A 0.30462967,0.30462967 0 0 0 1.911495,2.6012928 0.29666243,0.29666243 0 0 0 2.1055206,2.5234951 0.24370374,0.24370374 0 0 0 2.1828497,2.3454039 0.25870089,0.25870089 0 0 0 2.0975534,2.1513782 L 2.0047584,2.0974822 1.795267,1.973287 A 0.24089177,0.24089177 0 0 0 1.6092085,1.9423554 Z m 3.0383295,0 A 0.24182909,0.24182909 0 0 0 4.554274,1.973287 l -0.2090228,0.1241952 -0.093263,0.054365 c -0.00281,0.00187 -0.00469,0.00469 -0.0075,0.0075 a 0.22027068,0.22027068 0 0 0 -0.077798,0.1780912 0.24370374,0.24370374 0 0 0 0.077798,0.1780912 0.29619377,0.29619377 0 0 0 0.2943191,0.061863 l 0.07733,-0.045929 0.2015242,-0.1241951 A 0.25307696,0.25307696 0 0 0 4.8954597,2.0585833 0.24604704,0.24604704 0 0 0 4.6470693,1.9423554 Z M 3.175005,2.6786219 a 0.49607773,0.49607773 0 1 1 0,0.9921554 c -0.1373177,0 -0.2591695,-0.057645 -0.3486838,-0.1476283 C 2.8038252,3.501122 2.7817982,3.480032 2.7639892,3.453787 A 0.49959266,0.49959266 0 0 1 2.678693,3.1744652 c 0,-0.034212 0.00141,-0.068425 0.00797,-0.1007621 C 2.733061,2.8478085 2.9350536,2.6786219 3.175008,2.6786219 Z m 0,0.2483903 c -0.1031054,0 -0.1874644,0.065612 -0.2249573,0.1546582 A 0.23292453,0.23292453 0 0 0 2.9266147,3.1744652 0.24792168,0.24792168 0 1 0 3.175005,2.9265436 Z M 1.9114949,3.7560736 c -0.057645,0.00609 -0.073111,0.020621 -0.1007621,0.030932 l -0.053896,0.030932 -0.2015243,0.1237265 a 0.25307696,0.25307696 0 0 0 -0.077798,0.3491525 0.25542026,0.25542026 0 0 0 0.3486838,0.084828 L 2.0277228,4.2519169 2.098022,4.2050508 A 0.28775787,0.28775787 0 0 0 2.174882,4.0813243 0.1551268,0.1551268 0 0 0 2.182852,4.0344583 0.29900574,0.29900574 0 0 0 2.1055206,3.8409012 0.2718234,0.2718234 0 0 0 2.0202243,3.7715394 0.21558407,0.21558407 0 0 0 1.9114949,3.7560736 Z m 2.5345188,0.015466 A 0.26432482,0.26432482 0 0 0 4.1821576,4.0349269 c 0,0.067956 0.019215,0.1171652 0.062332,0.1626254 l 0.077329,0.054365 0.2015242,0.1237265 A 0.25542026,0.25542026 0 0 0 4.8720266,4.2908158 0.25307696,0.25307696 0 0 0 4.7946975,3.9416633 L 4.5931733,3.8179368 C 4.5753642,3.8076263 4.5584924,3.7959097 4.5388086,3.7870052 A 0.28775787,0.28775787 0 0 0 4.4460137,3.7715394 Z M 3.175005,4.4145423 A 0.25542026,0.25542026 0 0 0 3.081742,4.4300083 0.32290745,0.32290745 0 0 0 2.996446,4.4843733 0.2296439,0.2296439 0 0 0 2.911618,4.6390316 v 0.2722921 c 0,0.136849 0.1143533,0.2479217 0.2554203,0.2479217 A 0.25213963,0.25213963 0 0 0 3.4229267,4.9108545 V 4.6399685 A 0.25167097,0.25167097 0 0 0 3.1745364,4.415011 Z"
     fill="#ffffff"
     id="path33273"
     style="stroke-width:0.468661" /></svg>

<svg xmlns="http://www.w3.org/2000/svg" xml:space="preserve" width="24" height="24" viewBox="0 0 6.35 6.35"><defs><radialGradient id="a" cx="0" cy="0" r="1" gradientTransform="rotate(90 1.455 1.72) scale(5.82072)" gradientUnits="userSpaceOnUse"><stop offset="0" stop-color="#555" style="stop-color:#535353;stop-opacity:1"/><stop offset="1" stop-color="#222" style="stop-color:#3a3a3a;stop-opacity:1"/></radialGradient></defs><path fill="url(#a)" fill-rule="evenodd" d="M2.539.295a.312.312 0 0 0 .09-.012c.38-.025.76-.024 1.14.003.345.026.678.101 1 .224.536.22.903.603 1.1 1.148.114.328.18.665.2 1.012.029.435.019.869-.03 1.302a3.143 3.143 0 0 1-.236.879 1.87 1.87 0 0 1-1.094 1.008c-.409.139-.829.211-1.26.219a5.668 5.668 0 0 1-1.444-.11C1.13 5.773.59 5.24.385 4.366a5.04 5.04 0 0 1-.12-1.194c-.009-.428.037-.85.137-1.266C.617 1.09 1.135.584 1.957.39c.191-.047.385-.079.582-.094z" clip-rule="evenodd" style="fill:url(#a);stroke-width:.264578"/><path fill="#fff" d="M3.167 1.19c-.141 0-.231.104-.24.241v.279c.013.125.12.225.248.225a.253.253 0 0 0 .093-.016.254.254 0 0 0 .154-.21v-.27a.252.252 0 0 0-.255-.248Zm-.48.582a1.55 1.55 0 0 0-.45.256.46.46 0 0 1 .14.154c0 .002-.002.006 0 .008a.445.445 0 0 1 .038.094v.007a.475.475 0 0 1 .008.202c-.006.03-.02.058-.03.085a.445.445 0 0 1-.412.279.41.41 0 0 1-.232-.07c-.01.028-.025.055-.031.085v.008c-.01.046-.019.092-.023.14v.007a1.53 1.53 0 0 0-.008.147v.016c0 .046.003.095.008.14v.015c.005.045.014.088.023.132.008.043.019.083.03.124a.619.619 0 0 1 .264-.078.373.373 0 0 1 .24.07.412.412 0 0 1 .148.194.484.484 0 0 1 .03.178c0 .126-.102.291-.177.372.03.024.06.048.092.07.04.026.075.055.117.077.059.032.122.061.186.086.012.004.026.005.039.007a.262.262 0 0 1-.008-.054c0-.197.222-.356.496-.356s.496.159.496.356c0 .018-.005.037-.008.054.075-.026.148-.056.217-.093.053-.028.098-.06.147-.093l.047-.03c.012-.01.02-.022.03-.032a.48.48 0 0 1-.084-.085.407.407 0 0 1-.086-.186.532.532 0 0 1-.007-.093c0-.06.013-.12.03-.17v-.008a.384.384 0 0 1 .032-.07.409.409 0 0 1 .046-.062c.019-.022.04-.037.062-.054a.38.38 0 0 1 .14-.07.455.455 0 0 1 .085-.015.565.565 0 0 1 .279.077c.01-.039.023-.076.031-.116.009-.044.018-.087.024-.132V3.33a1.56 1.56 0 0 0 0-.31 1.542 1.542 0 0 0-.024-.14v-.008c-.007-.033-.02-.062-.031-.093a.41.41 0 0 1-.233.07.442.442 0 0 1-.318-.131.471.471 0 0 1-.053-.07.444.444 0 0 1-.024-.466.444.444 0 0 1 .054-.085.473.473 0 0 1 .078-.07 1.481 1.481 0 0 0-.442-.255c.004.017.008.036.008.054 0 .197-.222.356-.496.356a.566.566 0 0 1-.411-.154.356.356 0 0 1-.046-.062.274.274 0 0 1-.039-.14c0-.018.004-.037.008-.054zm-1.078.17a.258.258 0 0 0-.154.117.253.253 0 0 0 .077.348l.201.124.078.047a.305.305 0 0 0 .1.023.297.297 0 0 0 .195-.078.244.244 0 0 0 .077-.178.259.259 0 0 0-.085-.194l-.093-.054-.21-.124a.24.24 0 0 0-.186-.03Zm3.039 0a.242.242 0 0 0-.094.031l-.209.124-.093.055-.008.007a.22.22 0 0 0-.077.178.244.244 0 0 0 .077.179.296.296 0 0 0 .295.061l.077-.046.202-.124a.253.253 0 0 0 .077-.348.246.246 0 0 0-.248-.117Zm-1.473.737a.496.496 0 1 1 0 .992.49.49 0 0 1-.349-.148c-.022-.022-.044-.043-.062-.07a.5.5 0 0 1-.085-.279.51.51 0 0 1 .008-.1.498.498 0 0 1 .488-.395Zm0 .248a.245.245 0 0 0-.225.155.233.233 0 0 0-.023.092.248.248 0 1 0 .248-.247Zm-1.264.83c-.057.005-.073.02-.1.03l-.054.03-.202.125a.253.253 0 0 0-.077.349.255.255 0 0 0 .348.085l.202-.124.07-.047a.288.288 0 0 0 .077-.124.155.155 0 0 0 .008-.047.299.299 0 0 0-.077-.193.272.272 0 0 0-.086-.07.216.216 0 0 0-.109-.015Zm2.535.015a.264.264 0 0 0-.264.263c0 .068.02.117.062.163l.078.054.201.124a.255.255 0 0 0 .349-.085.253.253 0 0 0-.077-.35l-.202-.123c-.018-.01-.035-.022-.054-.031a.288.288 0 0 0-.093-.015Zm-1.271.643a.255.255 0 0 0-.093.015.323.323 0 0 0-.086.054.23.23 0 0 0-.084.155v.272c0 .137.114.248.255.248a.252.252 0 0 0 .256-.248V4.64a.252.252 0 0 0-.248-.225Z" style="stroke-width:.468661"/></svg>
